X:100
T:Lily Dale
C:by Billy Jack Wills
N:This is an old song from 1852, written by H.S. Thompson. Bob Wills' brother re-wrote it somewhat and put a tune to it that would fit the Bob Wills style. Ta
L:1/8
Q:1/4=140
M:4/4
K:D
z2 z2 z2 AA | "D"A2 A2 d2 e2 | f6 ed | "G"B4 d2 e2 | "D"d6 BB | A4 d2 e2 | f2 d2 d2 f2 | 
"A"fe3 z4 | z4 z3B | "D"A2 A2 d2 e2 | f6 ed | "G"B4 d2 e2 | "D"d6 de | f4 d2 B2 | 
"A"A2 A2 c2 e2 | "D"d8 | A4 A2 A2 | B2 d6 | "A"e4 e2 d2 | "D"fe d6 | "G"g4 d2 B2 | 
"A"A2 A2 d2 f2 | f2 e6 | z8 | "D"A8 | B2 d6 | "A"e4 e2 d2 | "D"f2 d6 | "G"g4 d2 B2 | 
"A"A4 c2 e2 | "D"e2 d6 | 


